!!!!SEGMENT: Lhe2006-Salvator_mundi.krn
!!!id: Lhe2006
!!!AGN: Motet
!!!SCT: Picker (1987)
!!!voices: 4
!!!COM: Jean Lhéritier
!!!OTL: Salvator mundi
**kern	**kern	**kern	**kern
*part4	*part3	*part2	*part1
*staff4	*staff3	*staff2	*staff1
*I"Bassus	*I"Tenor	*I"Altus	*I"Superius
*I'B	*I'T	*I'A	*I'S
*clefF4	*clefGv2	*clefGv2	*clefG2
*k[]	*k[]	*k[]	*k[]
*C:	*C:	*C:	*C:
*M2/1	*M2/1	*M2/1	*M2/1
*met(C|)	*met(C|)	*met(C|)	*met(C|)
!!Section: Prima pars: Salvator mundi
!!!OMD: Prima pars: Salvator mundi
=1	=1	=1	=1
0G	0G	0d	0g
=2	=2	=2	=2
1C	1G	1e	1g
1G	1B	1d	1g
=3	=3	=3	=3
1E	1c	1e	1g
[1D	[1d	[1A	2f
.	.	.	[2a
=4	=4	=4	=4
1D]	2d]	1A]	4a]
.	.	.	4g
.	4c	.	4f
.	4B	.	4e
1D	1A	[1d	1f
=5	=5	=5	=5
0G	2r	1d]	2g
.	2G	.	1b-i
.	[1d	1B	.
.	.	.	4a
.	.	.	4g
=6	=6	=6	=6
1D	1d]	2A	4f
.	.	.	4g
.	.	1d	2.a
1E	2B	.	.
.	.	.	4g
.	2G	2c#i	[2g
=7	=7	=7	=7
1D	1A	1d	2g]
.	.	.	2f#i
2r	1G	1d	[1g
[2G	.	.	.
=8	=8	=8	=8
2G]	2r	0r	1g]
2E	1c	.	.
1F	.	.	1r
.	2A	.	.
=9	=9	=9	=9
2G	2B	0r	0r
1A	1c	.	.
[2G	2B	.	.
=10	=10	=10	=10
2G]	1A	2r	1r
2F#i	.	1d	.
1G	1G	.	2r
.	.	2B	[2g
=11	=11	=11	=11
0r	2r	1c	2g]
.	2A	.	2e
.	2d	2d	2f
.	2c	[2e	[2g
=12	=12	=12	=12
0r	1d	2e]	2g]
.	.	1d	2f
.	1A	.	1e
.	.	2c#i	.
=13	=13	=13	=13
2r	1B	1d	[0d
1G	.	.	.
.	1A	2r	.
2F	.	[2d	.
=14	=14	=14	=14
2.G	2.B	2d]	1d]
.	.	2B	.
4F	4A	.	.
2E	2G	2c	1r
[2D	[2F	2A	.
=15	=15	=15	=15
2D]	2F]	2B	1r
2C	1E	2.A	.
1BB	.	.	2r
.	.	4G	.
.	2D	[2G	[2dd
=16	=16	=16	=16
1AA	2E	2G]	4dd]
.	.	.	8ccL
.	.	.	8bJ
.	2C	2F#i	2cc
2GG	2D	1G	2b
[2G	2E	.	2g
=17	=17	=17	=17
2G]	1D	0d	1a
2F#i	.	.	.
1G	2r	.	1b
.	[2G	.	.
=18	=18	=18	=18
1C	2G]	1e	1cc
.	2A	.	.
2G	2B	2d	2b
[2F	[2c	[2f	[2a
=19	=19	=19	=19
2F]	2c]	2f]	4a]
.	.	.	4g
2G	2B	2e	1g
1D	1A	1d	.
.	.	.	2f#i
=20	=20	=20	=20
2GG	1G	1d	0g
1G	.	.	.
.	2r	2B	.
2E	[2c	2c	.
=21	=21	=21	=21
1F	2c]	1A	0r
.	2A	.	.
1G	1B	2G	.
.	.	[2g	.
=22	=22	=22	=22
1C	1c	2g]	2r
.	.	2e	1cc
1r	2A	1f	.
.	[2d	.	2a
=23	=23	=23	=23
1G	4d]	1g	1b
.	4B	.	.
.	1e	.	.
1A	.	1c	1cc
.	4d	.	.
.	4c	.	.
=24	=24	=24	=24
2D	2d	1.f	2f
1F	1c	.	1a
2F	2c	2f	2a
=25	=25	=25	=25
2F	2c	2f	2a
2C	2c	2e	2g
2F	2c	2f	2a
2F	2c	2f	2a
=26	=26	=26	=26
1C	1c	1e	0g
[1G	2r	1d	.
.	[2B	.	.
=27	=27	=27	=27
2G]	2B]	0r	0r
2E	2G	.	.
1F	2A	.	.
.	[2c	.	.
=28	=28	=28	=28
1D	2c]	1r	1r
.	2B	.	.
[1C	[1c	[1e	[1g
=29	=29	=29	=29
1C]	1c]	2e]	2g]
.	.	2e	2g
1r	1r	1f	2a
.	.	.	[2cc
=30	=30	=30	=30
1r	1r	1d	2cc]
.	.	.	2b
1F	2r	1c	1cc
.	2A	.	.
=31	=31	=31	=31
1G	2B	0r	0r
.	2.d	.	.
2E	.	.	.
.	4c	.	.
2F	[2c	.	.
=32	=32	=32	=32
1D	2c]	2r	1r
.	2B	2d	.
[1C	[1c	2e	1g
.	.	[2g	.
=33	=33	=33	=33
1C]	1c]	2g]	1cc
.	.	4f	.
.	.	4e	.
2r	1r	1d	2b
2D	.	.	[2a
=34	=34	=34	=34
2E	1r	2B	4a]
.	.	.	4g
2C	.	2c	1g
1D	[1d	1A	.
.	.	.	2f#i
=35	=35	=35	=35
1GG	0d]	2.G	2g
.	.	.	2.dd
.	.	4A	.
[1G	.	2B	.
.	.	.	4cc
.	.	2c	4b
.	.	.	4a
=36	=36	=36	=36
2G]	2.B	2d	1b
2G	.	2e	.
.	4c	.	.
[1D	1d	[1f	[1a
=37	=37	=37	=37
1D]	2r	1f]	1a]
.	1d	.	.
[1G	.	1r	1r
.	2c	.	.
=38	=38	=38	=38
2G]	2B	1r	0r
2F	2A	.	.
2E	1c	2r	.
2E	.	[2g	.
=39	=39	=39	=39
1D	1d	2g]	2r
.	.	2f	1dd
1r	1A	2e	.
.	.	2e	2cc
=40	=40	=40	=40
1G	1r	2.d	2b
.	.	.	2b
.	.	4e	.
1D	1d	4f	2a
.	.	4g	.
.	.	[2f	[2dd
=41	=41	=41	=41
1F	1A	2f]	4dd]
.	.	.	4cc
.	.	2d	4b
.	.	.	4a
2E	1c	1e	2g
2C	.	.	4e
.	.	.	4f
=42	=42	=42	=42
1G	2B	2.d	4g
.	.	.	4a
.	2G	.	1b
.	.	4c	.
1D	2.d	4B	.
.	.	4A	.
.	.	[2d	[2a
.	4c	.	.
=43	=43	=43	=43
1E	2B	2d]	4a]
.	.	.	4g
.	4A	2c#i	1g
.	4G	.	.
1D	1A	1d	.
.	.	.	2f#i
=44	=44	=44	=44
1r	1G	1d	1g
1G	1d	2r	1b
.	.	[2g	.
=45	=45	=45	=45
1C	1e	2g]	1cc
.	.	2g	.
1G	1d	1g	1b
=46	=46	=46	=46
0D	0d	0f	0a
=47	=47	=47	=47
1F	1c	1f	1a
1G	1B	1d	1g
=48	=48	=48	=48
1D	1A	1.d	0f
1r	2r	.	.
.	[2A	[2f	.
=49	=49	=49	=49
1D	2A]	4f]	0r
.	.	4e	.
.	2A	4d	.
.	.	4c	.
2D	2.d	1B	.
[2G	.	.	.
.	4c	.	.
=50	=50	=50	=50
4G]	2B	0r	0r
4F	.	.	.
2E	2c	.	.
2F	2A	.	.
2D	[2d	.	.
=51	=51	=51	=51
2E	4d]	1r	0r
.	4c	.	.
2F	1c	.	.
1D	.	2r	.
.	2B	2d	.
=52	=52	=52	=52
0C	1c	1g	2r
.	.	.	2g
.	2r	2e	1cc
.	2A	2e	.
=53	=53	=53	=53
2r	2.d	1f	2a
2D	.	.	2dd
.	4c	.	.
2.G	2B	2d	2cc
.	4A	[2g	4b
4F	4G	.	4a
=54	=54	=54	=54
2E	2B	4g]	1g
.	.	4f	.
2C	2c	2e	.
1D	1A	1d	2r
.	.	.	2f
=55	=55	=55	=55
1E	1G	2r	2.g
.	.	2c	.
.	.	.	4a
[1D	1r	1d	2b-i
.	.	.	[2a
=56	=56	=56	=56
1D]	0r	1f	4a]
.	.	.	4g
.	.	.	4f
.	.	.	4e
1r	.	1f	2d
.	.	.	[2dd
=57	=57	=57	=57
0r	0r	1e	2dd]
.	.	.	2cc
.	.	2.d	2b
.	.	.	[2a
.	.	4c	.
=58	=58	=58	=58
1r	1r	2B	4a]
.	.	.	4g
.	.	2c	1g
1D	[1d	1A	.
.	.	.	2f#i
=59	=59	=59	=59
1G	2d]	2G	1g
.	2c	1g	.
1D	2B	.	[1dd
.	2A	2f	.
=60	=60	=60	=60
1.G	1G	1.g	2dd]
.	.	.	2cc
.	2.d	.	2b
2D	.	2f	[2a
.	4c	.	.
=61	=61	=61	=61
2E	2B	1e	4a]
.	.	.	4g
2C	2c	.	1g
1D	1A	1d	.
.	.	.	2f#i
=62	=62	=62	=62
1r	2G	0B	0g
.	2d	.	.
1G	2d	.	.
.	2d	.	.
=63	=63	=63	=63
2G	2.e	0r	0r
2G	.	.	.
.	4d	.	.
1A	2c	.	.
.	[2e	.	.
=64	=64	=64	=64
2G	2e]	0r	0r
2F	1d	.	.
1E	.	.	.
.	2c#i	.	.
=65	=65	=65	=65
0D	0d	1f	1a
.	.	2f	2a
.	.	2f	2a
=66	=66	=66	=66
0r	0r	1g	1b
.	.	1d	2a
.	.	.	[2dd
=67	=67	=67	=67
1r	1A	1e	2dd]
.	.	.	2cc#i
1D	2A	[1d	[1dd
.	2A	.	.
=68	=68	=68	=68
2D	2.d	1d]	1dd]
2D	.	.	.
.	4c	.	.
2.G	2B	1r	1r
.	2A	.	.
4F	.	.	.
=69	=69	=69	=69
2E	2G	0r	0r
2D	2.A	.	.
2C	.	.	.
.	4G	.	.
[2F	[2d	.	.
=70	=70	=70	=70
2F]	2d]	1d	0r
2E	1c	.	.
1D	.	2d	.
.	2B	2d	.
=71	=71	=71	=71
1C	1c	2.g	1g
.	.	4f	.
1r	1c	2e	2g
.	.	2d	2g
=72	=72	=72	=72
1F	2c	0c	2.cc
.	2c	.	.
.	.	.	4b
2F	2.f	.	2a
2F	.	.	2g
.	4e	.	.
=73	=73	=73	=73
2.B-i	2d	1r	1f
.	2c	.	.
4A	.	.	.
2G	2B	1d	2r
2F	2A	.	2f
=74	=74	=74	=74
2E	2B	2e	2g
2D	2d	2f	2.a
1E	2B	2e	.
.	.	.	4g
.	4A	2c	[2g
.	4G	.	.
=75	=75	=75	=75
1D	1A	1d	2g]
.	.	.	2f#i
1G	[1G	2B	1g
.	.	[2d	.
=76	=76	=76	=76
1E	1G]	2d]	2r
.	.	2c	2g
1r	2r	1B	4g
.	.	.	4f
.	[2d	.	4e
.	.	.	4d
=77	=77	=77	=77
1r	2d]	1A	2e
.	2c	.	2e
2r	1B	[1d	1d
[2G	.	.	.
=78	=78	=78	=78
2G]	2A	1d]	0r
2F	1d	.	.
1E	.	2r	.
.	2c#i	[2g	.
=79	=79	=79	=79
1D	1d	2g]	2r
.	.	2f	1dd
1r	1A	1e	.
.	.	.	2cc
=80	=80	=80	=80
2r	1r	2d	1b
1G	.	2B	.
.	2r	2.c	1a
2F	2A	.	.
.	.	4d	.
=81	=81	=81	=81
1E	2B	1e	1g
.	2c	.	.
1D	1d	2A	2f
.	.	[2f	[2a
=82	=82	=82	=82
2E	2B	2f]	4a]
.	.	.	4g
2C	2c	2e	1g
1D	1A	1d	.
.	.	.	2f#i
=	=	=	=
00GG	00G	00d	00g
=||	=||	=||	=||
*M2/1	*M2/1	*M2/1	*M2/1
*met(C|)	*met(C|)	*met(C|)	*met(C|)
!!Section: Secunda pars: Eia ergo
!!!OMD: Secunda pars: Eia ergo
0C	0c	0e	0g
=83	=83	=83	=83
1E	1B	1e	1g
1F	1A	2c	1f
.	.	2d	.
=84	=84	=84	=84
1C	1c	1e	1g
1G	1B	[1d	1g
=85	=85	=85	=85
2F	1d	2d]	1a
2D	.	2.A	.
1F	2c	.	1a
.	.	4B	.
.	2A	4c	.
.	.	4d	.
=86	=86	=86	=86
1E	1c	1e	1g
2r	1B	[1d	[1g
[2G	.	.	.
=87	=87	=87	=87
2G]	1.d	2d]	2g]
2G	.	2c	2g
1G	.	1B	1g
.	2d	.	.
=88	=88	=88	=88
0D	1d	2A	1f
.	.	1f	.
.	[1A	.	[1a
.	.	2e	.
=89	=89	=89	=89
1F	1A]	2d	1a]
.	.	2c	.
1G	[1d	1B	1g
=90	=90	=90	=90
2D	1d]	2A	2f
1G	.	2G	1b-i
.	2B	2d	.
2F	[2c	2A	[2a
=91	=91	=91	=91
1E	4c]	2B	4a]
.	4B	.	4g
.	4A	2c	1g
.	4G	.	.
1D	1A	1d	.
.	.	.	2f#i
=92	=92	=92	=92
1r	1G	0B	0g
1G	2r	.	.
.	[2d	.	.
=93	=93	=93	=93
2F	2d]	0r	0r
2E	2c	.	.
1D	2B	.	.
.	[2A	.	.
=94	=94	=94	=94
2C	4A]	0r	2r
.	4G	.	.
2BB	1G	.	2dd
1AA	.	.	2cc
.	2F#i	.	2a
=95	=95	=95	=95
1GG	1G	2r	1b
.	.	2g	.
1r	1r	2f	2a
.	.	2d	[2dd
=96	=96	=96	=96
0r	0r	1e	2dd]
.	.	.	2cc
.	.	2.d	2b
.	.	.	[2a
.	.	4c	.
=97	=97	=97	=97
0r	2r	2B	4a]
.	.	.	4g
.	2d	4A	1g
.	.	4G	.
.	2c	1A	.
.	2A	.	2f#i
=98	=98	=98	=98
1G	1B	1G	1g
2F	2A	1r	1r
2D	[2d	.	.
=99	=99	=99	=99
2E	2d]	2r	1r
2E	2c#i	2g	.
1D	1d	2f	2r
.	.	2d	2dd
=100	=100	=100	=100
0r	0r	1f	2cc
.	.	.	2a
.	.	2e	1cc
.	.	4c	.
.	.	4d	.
=101	=101	=101	=101
0r	0r	4e	2b
.	.	4f	.
.	.	2.g	4g
.	.	.	4a
.	.	.	4b
.	.	4f	4cc
.	.	4e	[2dd
.	.	4d	.
=102	=102	=102	=102
0r	1A	1e	2dd]
.	.	.	2cc#i
.	1B	1d	[1dd
=103	=103	=103	=103
1D	2A	0r	1dd]
.	1d	.	.
1E	.	.	1r
.	2c	.	.
=104	=104	=104	=104
2D	1B	0r	0r
2G	.	.	.
2F	2A	.	.
2D	[2d	.	.
=105	=105	=105	=105
1E	2d]	0r	0r
.	2c	.	.
1D	2B	.	.
.	[2A	.	.
=106	=106	=106	=106
2BB	2A]	0r	1r
2C	1G	.	.
1AA	.	.	1a
.	2F#i	.	.
=107	=107	=107	=107
1GG	1G	0d	1b
1r	1r	.	2a
.	.	.	[2dd
=108	=108	=108	=108
0r	1A	1e	2dd]
.	.	.	2cc#i
.	1B	2d	[1dd
.	.	[2g	.
=109	=109	=109	=109
1D	2A	2g]	1dd]
.	1d	2f	.
1E	.	1g	1r
.	2c	.	.
=110	=110	=110	=110
2D	2d	1r	0r
1G	2B	.	.
.	1A	2r	.
2F#i	.	[2d	.
=111	=111	=111	=111
2G	2B	2d]	2r
2E	2G	2c	1g
1D	1A	1d	.
.	.	.	2f
=112	=112	=112	=112
1G	2r	1B	1g
.	1d	.	.
1r	.	1A	1e
.	2c	.	.
=113	=113	=113	=113
2r	2d	2.B	1d
1G	2B	.	.
.	.	4c	.
.	1A	4d	1r
.	.	4e	.
2F	.	[2d	.
=114	=114	=114	=114
2G	2B	2d]	2r
2E	2G	2c	1g
1D	1A	1d	.
.	.	.	2f
=115	=115	=115	=115
2E	2.G	2B	2g
2C	.	2c	2e
.	4A	.	.
2G	2B	2d	2d
2F	[2c	2A	[2a
=116	=116	=116	=116
1E	4c]	2B	4a]
.	4B	.	4g
.	2G	2c	1g
1D	1A	2d	.
.	.	2d	2f#i
=117	=117	=117	=117
2r	1G	0B	1g
1G	.	.	.
.	1d	.	1r
2D	.	.	.
=118	=118	=118	=118
1F	2d	1r	0r
.	2c	.	.
1G	1B	[1d	.
=119	=119	=119	=119
0D	0A	1d]	0a
.	.	1f	.
=120	=120	=120	=120
0r	0r	1g	1b
.	.	2d	2.a
.	.	[2f	.
.	.	.	4b
=121	=121	=121	=121
0r	0r	2f]	2cc
.	.	4e	1dd
.	.	4d	.
.	.	1e	.
.	.	.	2cc
=122	=122	=122	=122
0r	0r	2d	2.b
.	.	1g	.
.	.	.	8aL
.	.	.	8gJ
.	.	.	1a
.	.	2f	.
=123	=123	=123	=123
0r	1r	2e	2g
.	.	2c	2cc
.	[1G	1d	2cc
.	.	.	2b
=124	=124	=124	=124
1C	2G]	2c	1cc
.	2A	2e	.
2G	2B	2d	2b
2F	[2c	2A	[2a
=125	=125	=125	=125
1E	4c]	2B	2a]
.	4B	.	.
.	4A	2c	1g
.	4G	.	.
1D	1A	1d	.
.	.	.	2f#i
=	=	=	=
*M3/1	*M3/1	*M3/1	*M3/1
*met(3)	*met(3)	*met(3)	*met(3)
0GG	0G	0d	0g
1r	1r	1r	1r
=126	=126	=126	=126
0G	0d	0g	0b
1G	1d	1g	1b
=127	=127	=127	=127
0A	0c	0e	0cc
1A	1c	1f	1a
=128	=128	=128	=128
1G	0d	1g	0b
1D	.	1f	.
[1F	1c	[1f	1a
=129	=129	=129	=129
1F]	1A	1f]	1a
0G	0B	0d	2g
.	.	.	2f
.	.	.	1g
=130	=130	=130	=130
0.D	0.A	0d	0a
.	.	1r	1r
=131	=131	=131	=131
1%3r	1%3r	1f	1a
.	.	1f	1a
.	.	1d	1a
=132	=132	=132	=132
1%3r	1%3r	0g	0b
.	.	1d	1a
=133	=133	=133	=133
1%3r	1r	1e	1g
.	1F	1f	1cc
.	1G	1d	1b
=134	=134	=134	=134
0F	0A	1.c	0cc
.	.	2d	.
1G	1B	1e	1r
=135	=135	=135	=135
0A	0c	0f	1%3r
1G	1B	1e	.
=136	=136	=136	=136
1F	1A	1d	1%3r
0G	1.B	1.e	.
.	2A	2d	.
=137	=137	=137	=137
1F	0A	0d	1%3r
0E	.	.	.
.	1G	1c#i	.
=	=	=	=
*M2/1	*M2/1	*M2/1	*M2/1
*met(C|)	*met(C|)	*met(C|)	*met(C|)
0D	0A	1d	1a
.	.	1d	[1dd
=138	=138	=138	=138
0r	0r	1.g	2dd]
.	.	.	2cc
.	.	.	2b
.	.	2f	2a
=139	=139	=139	=139
0r	1r	2e	2b
.	.	2d	1dd
.	1A	1e	.
.	.	.	2cc#i
=140	=140	=140	=140
1D	1.d	1d	0dd
[1G	.	1r	.
.	2c	.	.
=141	=141	=141	=141
2G]	2B	1r	0r
2F	2A	.	.
2E	2B	2r	.
2D	[2d	2d	.
=142	=142	=142	=142
1E	2d]	1g	1r
.	2c#i	.	.
[1D	[1d	[1f	1a
=143	=143	=143	=143
1D]	1d]	2f]	1dd
.	.	4e	.
.	.	4d	.
1r	1r	2e	2.cc
.	.	[2f	.
.	.	.	4b
=144	=144	=144	=144
0r	0r	2f]	2a
.	.	2e	2g
.	.	2d	2a
.	.	2c	[2cc
=145	=145	=145	=145
1r	1G	1d	2cc]
.	.	.	2b
1C	1c	1c	1cc
=146	=146	=146	=146
2.D	2B	0r	1r
.	1A	.	.
4C	.	.	.
2BB	.	.	2r
2C	[2G	.	2g
=147	=147	=147	=147
1AA	2G]	1r	1cc
.	2F#i	.	.
2GG	2.G	2.d	2.b
[2G	.	.	.
.	4A	4c	4a
=148	=148	=148	=148
2G]	2B	4d	4g
.	.	4e	4f
1F	1c	2.f	1a
.	.	4e	.
2G	2B	[2d	2g
=149	=149	=149	=149
2D	2A	2d]	2f
2E	2G	2c	1g
1D	1A	1d	.
.	.	.	2f#i
=150	=150	=150	=150
1r	2G	0B	0g
.	2d	.	.
1G	2d	.	.
.	2d	.	.
=151	=151	=151	=151
2G	2.e	0r	0r
2G	.	.	.
.	4d	.	.
1A	2c	.	.
.	[2e	.	.
=152	=152	=152	=152
2G	2e]	0r	0r
2F	1d	.	.
1E	.	.	.
.	2c#i	.	.
=153	=153	=153	=153
0D	0d	1f	1a
.	.	2f	2a
.	.	2f	2a
=154	=154	=154	=154
0r	0r	1g	1b
.	.	1d	2a
.	.	.	[2dd
=155	=155	=155	=155
1r	1A	1e	2dd]
.	.	.	2cc#i
1D	2A	[1d	[1dd
.	2A	.	.
=156	=156	=156	=156
2D	2.d	1d]	1dd]
2D	.	.	.
.	4c	.	.
2.G	2B	1r	1r
.	2A	.	.
4F	.	.	.
=157	=157	=157	=157
2E	2G	0r	0r
2D	2.A	.	.
2C	.	.	.
.	4G	.	.
[2F	[2d	.	.
=158	=158	=158	=158
2F]	2d]	1d	0r
2E	1c	.	.
1D	.	2d	.
.	2B	2d	.
=159	=159	=159	=159
1C	1c	2.g	1g
.	.	4f	.
1r	1c	2e	2g
.	.	2d	2g
=160	=160	=160	=160
1F	2c	0c	2.cc
.	2c	.	.
.	.	.	4b
2F	2.f	.	2a
2F	.	.	2g
.	4e	.	.
=161	=161	=161	=161
2.B-i	2d	1r	1f
.	2c	.	.
4A	.	.	.
2G	2B	1d	2r
2F	2A	.	2f
=162	=162	=162	=162
2E	2B	2e	2g
2D	2d	2f	2.a
1E	2B	2e	.
.	.	.	4g
.	4A	2c	[2g
.	4G	.	.
=163	=163	=163	=163
1D	1A	1d	2g]
.	.	.	2f#i
1G	[1G	2B	1g
.	.	[2d	.
=164	=164	=164	=164
1E	1G]	2d]	2r
.	.	2c	2g
1r	2r	1B	4g
.	.	.	4f
.	[2d	.	4e
.	.	.	4d
=165	=165	=165	=165
1r	2d]	1A	2e
.	2c	.	2e
2r	1B	[1d	1d
[2G	.	.	.
=166	=166	=166	=166
2G]	2A	1d]	0r
2F	1d	.	.
1E	.	2r	.
.	2c#i	[2g	.
=167	=167	=167	=167
1D	1d	2g]	2r
.	.	2f	1dd
1r	1A	1e	.
.	.	.	2cc
=168	=168	=168	=168
2r	1r	2d	1b
1G	.	2B	.
.	2r	2.c	1a
2F	2A	.	.
.	.	4d	.
=169	=169	=169	=169
1E	2B	1e	1g
.	2c	.	.
1D	1d	2A	2f
.	.	[2f	[2a
=170	=170	=170	=170
2E	2B	2f]	4a]
.	.	.	4g
2C	2c	2e	1g
1D	1A	1d	.
.	.	.	2f#i
=171	=171	=171	=171
00GGl	00Gl	00dl	00gl
==	==	==	==
*-	*-	*-	*-
!!!system-decoration: [*]
!!!RDF**kern: i = editorial accidental
!!!RDF**kern: l = terminal long
!!!ENC: Benjamin Ory
!!!END: 2023/1/26
!!!EED: Benjamin Ory
!!!EEV: 2023/01/26
!!!YEC: Copyright 2023 Benjamin Ory, All Rights Reserved
!!!ONB: Translated from MusicXML on 2023/01/26
